X:1
T:Cum cmplerentur
T:Cum cmplerentur
T:Horatio Tarditi
C:Horatio Tarditi
%%score [ 1 2 ] { 3 | 4 }
L:1/8
Q:1/4=120
M:2/2
K:C
V:1 treble nm="Soprano" snm="S"
V:2 bass nm="Bass" snm="B"
V:3 treble nm="MusicXML Part"
V:4 bass 
V:1
"^Source: Liber IV motectorum---Anvers---haeredes P.Phalesii---1643.""^Editor: André Vierendeels (14/02/96)""^Basso Conrtinuo: Joachim Kelecom" z8 | %1
w: |
 z8"^Cum complerentur" | z8 | z8 | z8 | z8 | z8 | A8 | A>Bc>B A>GF>E | F8 | E8 | A>Bc>B A>GF>E | %12
w: ||||||Cum|com- ple- ren- tur di- es Pen- te-|cos-|tes,|com- ple- ren- tur di- es Pen- te-|
 G4 G4 | c>de>d c>cB>A | Bcdc B4 | A8 | z8 | z8 | z8 | z8 | z ede cd/c/Bc/B/ | AB/c/dc B4 | A8 | %23
w: cos- tes,|com- ple- ren- tur di- es Pen- te|co- * * * *|stes,|||||Al- le- lu- ia _ _ _ _ _|_ _ _ Al- le- lu-|ia|
 z dcd Bc/B/AB/A/ | GG c4"^Cum  complerentur" B2 | cgfg ef/e/de/d/ | cB/c/ dc B4 | A8 || %28
w: Al- le- lu- ia _ _ _ _ _|_ Al- le lu-|ia Al- le- lu- ia _ _ _ _ _|Al- * * le- * lu-|ia.|
 z2 A2 A>AB>B | c4 c2 A2 | Bc d4 ^c2 | d4 z ede | ^cd/e/AB/c/ ddcd | B2 cd A4 | G4 z4 | %35
w: Et fa- ctus est re-|pen- te de|coe- lo so- *|nus, Al- le- lu|ia _ _ _ _ _ _ Al- le- lu-|ia, Al- le- lu-|ia,|
 e4 ^c>cc>c | d3 d d3 c | B2 dd d2 ^c2 |"^-natural" ddcd Bc/B/AB/A/ | Ggfg ef/e/de/d/ | %40
w: Tam- quam ad- ve- ni-|en- tis Spi- ri-|tus ve- he- men- *|tis, Al- le lu- ia _ _ _ _ _|_ Al- le- lu- ia _ _ _ _ _|
 c2 c2 B3 B | A4 z4 | z8 | z8 | z8"^Cum  complerentur" | z8 | z8 | z8 | z8 | z8 | z8 | z4 z dcd | %52
w: _ Al- le- lu-|ia.||||||||||Al- le- lu-|
 Bc/B/AB/A/ Ggfg | ef/e/de/d/ ccBc | AB/A/GA/G/ ^FG (A2 | A2) ^G2 Aede | cd/c/Bc/B/ A3 B/c/ | %57
w: ia _ _ _ _ _ _ Al- le- lu-|ia _ _ _ _ _ _ Al- le- lu-|ia _ _ _ _ _ _ Al- le-|* lu- ia, Al- le- lu-|ia _ _ _ _ _ Al- * *|
 de/d/cd/c/ B3 A/B/ | cG c4 B2 | c4 z cBc | A/E/F/G/ A/B/c/d/ (e4 | e2) dc B4 |"^-natural" A8 |] %63
w: |* le- lu- *|ia, Al- le- lu-|ia _ _ _ _ _ _ _ Al|_ le- * lu-|ia.|
V:2
 A,8 | A,>B,C>B, A,>G,F,>E, | F,8 | C,8 | C,>D,E,>D, C,>C,B,,>B,, | A,,B,,C,D, E,F,G,E, | %6
w: Cum|com- ple- ren- tur di- es Pen- te-|cos-|tes,|com- ple- ren- tur di- es Pen- te-|cos- * * * * * * *|
 ^F,G, A,4 ^G,2 | A,8 | z8 | D,8 | A,>B,C>B, A,>G,F,>E, | F,4 F,4 | C,>D,E,>D, C,>C,B,,>B,, | %13
w: |stes,||cum|com- ple- ren- tur di- es Pen- te-|cos- tes,|com- ple- ren- tur di- es Pen- te-|
 A,,B,,C,D, E,2 ^F,2 | ^G,2 A,4 G,2 | A,4 z2 A,>B, | C2 CC B,2 A,>A, | A,6 A,2 | G,4 z2 E,>E, | %19
w: cos- * * * * *||stes, e- rant|o- mnes dis- ci- pu- lis|pa- ri-|ter in e-|
 F,2 C,2 G,4 | C,4 z4 | z8 | z A,G,A, F,G,/F,/E,F,/E,/ |"^-natural" D,3 E,/^F,/ G,A,/G,/F,G,/F,/ | %24
w: o- dem lo-|co,||Al- le- lu- ia _ _ _ _ _|_ _ _ _ _ _ _ _ _|
 E,4 z G,F,G, | E,F,/E,/D,E,/D,/ C,3 D,/E,/ | F,2 D,2 E,4 | A,,8 || z8 | z8 | z4 A,4 | %31
w: * Al- le- lu-|ia _ _ _ _ _ _ Al- *|* le- lu-|ia.|||Tam-|
 ^F,>F,F,>F, ^G,3 G, | A,3 A, ^F,4 | G,D, G,4 ^F,2 | G,G,F,G, E,F,/E,/D,E,/D,/ | %35
w: quam ad- ve- ni- en- tis|Spi- ri- tus|ve- he- men- *|tis, Al- le- lu ia _ _ _ _ _|
 C,CB,C A,B,/A,/G,A,/G,/ | ^F,D,C,D, B,,C,/B,,/A,,B,,/A,,/ | G,,2 _B,,G,, A,,4 | %38
w: _ Al- le lu- ia _ _ _ _ _|_ Al- le- lu- ia _ _ _ _ _|_ Al- le lu-|
"^a," D,4 z G,F,G, | E,F,/E,/D,E,/D,/ C,D,/C,/B,,C,/B,,/ | A,,2 C,2 D,2 E,2 | A,,4 A,4 | %42
w: ia, Al- le- lu-|ia _ _ _ _ _ _ _ _ _ _ _|_ Al- le- lu-|ia, Et|
 z A,A,B, C2 B,2 | A,4 G,4 | E,>E,^F,>F, G,>D,E,>C, | G,4 C,4 | z2 C,2 D,3 D, | D,2 E,2 F,3 F, | %48
w: ap- pa- ru- e- runt|il- lis|dis- per- ti- tae lin- guae tam- quam|i- gnis,|se- dit que|su- pra sin- gu-|
 F,2 E,2 D,4 | C,4 (E,4 | E,2) E,2 B,,4 | D,8 | G,,G,F,G, E,F,/E,/D,E,/D,/ | %53
w: los e- o-|rum Spi-|* ri- tus|San-|ctus, Al- le- lu- ia _ _ _ _ _|
 C,CB,C A,B,/A,/G,A,/G,/ | F,4 z4 | z E,D,E, C,D,/C,/B,,C,/B,,/ | A,,A,G,A, F,G,/F,/E,F,/E,/ | %57
w: _ Al- le- lu ia _ _ _ _ _|_|Al- le- lu ia _ _ _ _ _|_ Al- le- lu- ia _ _ _ _ _|
"^-natural""^-natural" D,3 E,/^F,/ G,A,/G,/F,G,/F,/ | E,2 C,2 G,4 | %59
w: _ Al- * * * * * * *|* le- lu-|
 C,C,B,,C, A,, B,,/C,/ D,/E,/F,/G,/ | A,6 A,,2 | E,8 | A,,8 |] %63
w: ia, Al- le- lu- ia, Al- * * * * *|* le-|lu-|ia.|
V:3
 z8 | z8 | z8 | z8 | z8 | z8 |"^#" z8"^3" | z8 | z8 | z8 | z8 | z8 | z8 | z8"^6" | z8"^3" | z8 | %16
 z8 | z8 | z8 | z8 | z8 | z8 | z8 | z8 | z8 | z8 | z8 | z8 || z8 | z8 | z8 | z8 | z8 | z8 | z8 | %35
 z8 | z8 | z8 | z8 | z8 | z8 | z8 | z8 | z8 | z8 | z8 | z8 | z8 | z8 | z8 | z8 | z8 | z8 | z8 | %54
 z8 | z8 | z8 | z8 | %58
 z8"^Notes: original keys; Ut 1st, Fa 4rth, Fa 4rth\n            editorial accidentals above the staff" | %59
 z8 | z8 | z8 | z8 |] %63
V:4
 A,8 | A,8 | F,8 | C,8 | C,4 C,2 B,,2 | A,,4 C,4 | D,2 A,,2"^4" E,4 |"^-natural" A,,8 | %8
"^-natural" A,,8 | D,8 | A,8 | F,8 | C,4 C,2 B,,2 | A,,4"^5" A,,4 |"^#" E,2 D,2"^4" E,4 | %15
 A,,4 A,2 B,2 | C4 B,2 A,2 | A,6 A,2 | G,4 E,4 | F,2 C,2 G,4 | C,4 A,2 G,2 | F,2 D,2 E,4 | %22
 A,2 G,2 F,2 E,2 | D,3 E,/^F,/ G,2 F,2 |"^-natural""^6" E,4 G,4 | E,2 D,2 C,3 D,/E,/ | %26
 F,2 D,2"^4""^3" E,4 | A,,8 || A,,8 |"^6" E,4 F,4 | G,2 ^F,2 A,4 |"^#" D,4 E,4 |"^#" A,4 ^F,4 | %33
 G,2 C,2 D,4 | G,4 E,2 D,2 | C,2 B,,2 A,,2 G,2 | ^F,2 C,2 B,,2 A,,2 | G,,2 _B,,G,, A,,4 | D,4 G,4 | %39
 E,2 D,2 C,2 B,,2 | A,,2 C,2 D,2 E,2 | A,,4 A,4 | A,3 B, C2 B,2 | A,4 G,4 | E,2 ^F,2 G,2 C,2 | %45
 G,,4 C,4 | C,4 (D,4 | D,2) E,2 F,4 | F,2 E,2 D,4 | C,4 (E,4 | E,2) E,2 B,,4 | D,8 | %52
 G,2 F,2 E,2 D,2 | C,2 B,2 A,2 G,2 | F,2 E,2 D,2 C,2 |"^4" E,4"^3""^6" C,2 B,,2 | %56
 A,,2 G,2 F,2 E,2 | D,3 E,/^F,/ G,2 F,2 | E,2 C,2 G,4 | C,2 B,,2 A,,4 | A,,8 | E,8 | A,,8 |] %63

